X:1
T:Reën
C:L Reed , B Mason
Z:All Rights Reserved
L:1/4
M:3/4
K:Bb
V:1 treble nm="[Unnamed (treble staff)]"
%%MIDI control 7 100
%%MIDI control 10 64
V:1
 z d c |:"Bb" B D E | F3- | F D E | F B3/2 A/ |"Eb" A G2- | G3- | G3 | z c B |"F" A C D | E3- | %11
w: Kyk hoe|sag val die|reën|* in die|boom- ry- ke|la- ning|||waar ek|jou al- tyd|neem|
w: |laat- mid- dag-|reën|* blink die|nat ei- ke|bla- re.|||Hier is|ons twee te-|saam|
 E C D | E A3/2 G/ |"Bb" F3 | D3 |"Eb" z3 |"F" z d c |"Bb" B D E | F3- | F D E | F B3/2 A/ | %21
w: * in ons|vreug- \-de en|tra-|ne.||In my|hart val die|reën|* as jy|som- tyds nog|
w: * in die|fleur van ons|ja-|re.||Sal jy,|lief- ling, my|nou|* al jou|lief- de be-|
"Eb" A G2- | G3- | G3 | z c B |"F" A C D | E3- | E C D | E G3/2 A/ |"Bb" B3- | B3 |"F" z3 | z3 | %33
w: twy- fel,|||maar my|hart word ge-|seën|* net met|lief- \-de- vir|jou.||||
w: lo- we?|||wil jy|graag met my|trou,|* dan word|twee har- te|een.||||
"Bb" d3 | d3 |"Eb" d c3/2 =B/ |"Cm" c3 |"F" c F A | d2 c |"Eb" c B G |"Bb" F3 | d3 |"Bbm7" f2 f | %43
w: Reën,|reën,|lief- li- ke|reën,|val in die|la- ning,|val om ons|heen.|Reën,|reën, as|
w: ||||||||||
"Eb" f e d | e2 z |"F" c F A | d2 c |"Bb" B3- | B3 |1"F" z3 | z d c :|2"F" c F A | d2 c |"Bb" B3- | %54
w: wol \-ke kom|ween,|ju- bel my|hart oor|jou.|||in die|ju- bel my|hart oor|jou.|
w: |||||||||||
 B3 |] %55
w: |
w: |

